src/assets/Imgs/sns/helper.svg

<svg fill="none" height="64" viewBox="0 0 24 24" width="64" xmlns="http://www.w3.org/2000/svg"><path d="m9 10c0-.59334.17595-1.17336.50559-1.66671.32965-.49335.79821-.87786 1.34641-1.10493.5481-.22706 1.1513-.28647 1.7333-.17071.5819.11575 1.1165.40147 1.536.82103.4196.41956.7053.95411.8211 1.53605.1157.58194.0563 1.18517-.1708 1.73337-.227.5481-.6115 1.0167-1.1049 1.3463-.4933.3297-1.0734.5056-1.6667.5056v1m9-2c0 4.9706-4.0294 9-9 9-4.97056 0-9-4.0294-9-9 0-4.97056 4.02944-9 9-9 4.9706 0 9 4.02944 9 9z" stroke="#fff" stroke-linecap="round" stroke-linejoin="round" stroke-width="2"/><circle cx="12" cy="17" fill="#fff" r="1"/></svg>

<svg width="64px" height="64px" viewBox="0 0 24 24" fill="none" xmlns="http://www.w3.org/2000/svg">

<g id="SVGRepo_bgCarrier" stroke-width="0"/>

<g id="SVGRepo_tracerCarrier" stroke-linecap="round" stroke-linejoin="round"/>

<g id="SVGRepo_iconCarrier"> <path d="M9 10C9 9.40666 9.17595 8.82664 9.50559 8.33329C9.83524 7.83994 10.3038 7.45543 10.852 7.22836C11.4001 7.0013 12.0033 6.94189 12.5853 7.05765C13.1672 7.1734 13.7018 7.45912 14.1213 7.87868C14.5409 8.29824 14.8266 8.83279 14.9424 9.41473C15.0581 9.99667 14.9987 10.5999 14.7716 11.1481C14.5446 11.6962 14.1601 12.1648 13.6667 12.4944C13.1734 12.8241 12.5933 13 12 13V14M21 12C21 16.9706 16.9706 21 12 21C7.02944 21 3 16.9706 3 12C3 7.02944 7.02944 3 12 3C16.9706 3 21 7.02944 21 12Z" stroke="#ffffff" stroke-width="2" stroke-linecap="round" stroke-linejoin="round"/> <circle cx="12" cy="17" r="1" fill="#ffffff"/> </g>

</svg>
